dist/assets/img/questions/8/answers/2_1200.svg

<svg width="520" height="216" viewBox="0 0 520 216" fill="none" xmlns="http://www.w3.org/2000/svg">
<g filter="url(#filter0_di_1419_50138)">
<path fill-rule="evenodd" clip-rule="evenodd" d="M65.8069 28C61.7397 28 58.3198 31.0518 57.8585 35.0928L40.0526 191.093C39.5108 195.84 43.2233 200 48.001 200H439.265C443.332 200 446.752 196.948 447.213 192.907L449.454 173.275C449.797 170.272 451.815 167.753 454.565 166.499C464.092 162.155 476.159 154.077 479.476 142.638C479.496 142.569 479.419 142.513 479.36 142.553C475.781 144.922 469.299 149.212 461.391 151.933C456.532 153.605 452.188 149.323 452.771 144.218L465.019 36.9072C465.561 32.1604 461.849 28 457.071 28H65.8069Z" fill="#FFF0CB"/>
</g>
<defs>
<filter id="filter0_di_1419_50138" x="0" y="0" width="519.479" height="252" filterUnits="userSpaceOnUse" color-interpolation-filters="sRGB">
<feFlood flood-opacity="0" result="BackgroundImageFix"/>
<feColorMatrix in="SourceAlpha" type="matrix" values="0 0 0 0 0 0 0 0 0 0 0 0 0 0 0 0 0 0 127 0" result="hardAlpha"/>
<feOffset dy="12"/>
<feGaussianBlur stdDeviation="20"/>
<feComposite in2="hardAlpha" operator="out"/>
<feColorMatrix type="matrix" values="0 0 0 0 1 0 0 0 0 1 0 0 0 0 1 0 0 0 1 0"/>
<feBlend mode="normal" in2="BackgroundImageFix" result="effect1_dropShadow_1419_50138"/>
<feBlend mode="normal" in="SourceGraphic" in2="effect1_dropShadow_1419_50138" result="shape"/>
<feColorMatrix in="SourceAlpha" type="matrix" values="0 0 0 0 0 0 0 0 0 0 0 0 0 0 0 0 0 0 127 0" result="hardAlpha"/>
<feOffset dy="-4"/>
<feGaussianBlur stdDeviation="4"/>
<feComposite in2="hardAlpha" operator="arithmetic" k2="-1" k3="1"/>
<feColorMatrix type="matrix" values="0 0 0 0 0.883659 0 0 0 0 0.635314 0 0 0 0 0.0558422 0 0 0 0.4 0"/>
<feBlend mode="normal" in2="shape" result="effect2_innerShadow_1419_50138"/>
</filter>
</defs>
</svg>

<svg width="520" height="216" viewBox="0 0 520 216" fill="none" xmlns="http://www.w3.org/2000/svg"><g filter="url(#filter0_di_1419_50138)"><path fill-rule="evenodd" clip-rule="evenodd" d="M65.807 28a8 8 0 00-7.949 7.093l-17.805 156C39.51 195.84 43.223 200 48 200h391.264a8 8 0 007.948-7.093l2.241-19.632c.343-3.003 2.361-5.522 5.111-6.776 9.527-4.344 21.594-12.422 24.911-23.861a.076.076 0 00-.116-.085c-3.579 2.369-10.061 6.659-17.969 9.38-4.859 1.672-9.203-2.61-8.62-7.715l12.248-107.31c.542-4.748-3.17-8.908-7.948-8.908H65.807z" fill="#FFF0CB"/></g><defs><filter id="filter0_di_1419_50138" x="0" y="0" width="519.479" height="252" filterUnits="userSpaceOnUse" color-interpolation-filters="sRGB"><feFlood flood-opacity="0" result="BackgroundImageFix"/><feColorMatrix in="SourceAlpha" values="0 0 0 0 0 0 0 0 0 0 0 0 0 0 0 0 0 0 127 0" result="hardAlpha"/><feOffset dy="12"/><feGaussianBlur stdDeviation="20"/><feComposite in2="hardAlpha" operator="out"/><feColorMatrix values="0 0 0 0 1 0 0 0 0 1 0 0 0 0 1 0 0 0 1 0"/><feBlend in2="BackgroundImageFix" result="effect1_dropShadow_1419_50138"/><feBlend in="SourceGraphic" in2="effect1_dropShadow_1419_50138" result="shape"/><feColorMatrix in="SourceAlpha" values="0 0 0 0 0 0 0 0 0 0 0 0 0 0 0 0 0 0 127 0" result="hardAlpha"/><feOffset dy="-4"/><feGaussianBlur stdDeviation="4"/><feComposite in2="hardAlpha" operator="arithmetic" k2="-1" k3="1"/><feColorMatrix values="0 0 0 0 0.883659 0 0 0 0 0.635314 0 0 0 0 0.0558422 0 0 0 0.4 0"/><feBlend in2="shape" result="effect2_innerShadow_1419_50138"/></filter></defs></svg>
